app/assets/images/heroicons/outline/folder-open.svg

<svg width="24" height="24" viewBox="0 0 24 24" fill="none" xmlns="http://www.w3.org/2000/svg">
<path d="M3.74999 9.77602C3.86203 9.7589 3.97698 9.75 4.09426 9.75H19.9057C20.023 9.75 20.138 9.7589 20.25 9.77602M3.74999 9.77602C2.55399 9.9588 1.68982 11.0788 1.86688 12.3182L2.72402 18.3182C2.88237 19.4267 3.83169 20.25 4.95141 20.25H19.0486C20.1683 20.25 21.1176 19.4267 21.276 18.3182L22.1331 12.3182C22.3102 11.0788 21.446 9.9588 20.25 9.77602M3.74999 9.77602V6C3.74999 4.75736 4.75735 3.75 5.99999 3.75H9.87867C10.2765 3.75 10.658 3.90804 10.9393 4.18934L13.0607 6.31066C13.342 6.59197 13.7235 6.75 14.1213 6.75H18C19.2426 6.75 20.25 7.75736 20.25 9V9.77602" stroke="#0F172A" stroke-width="1.5" stroke-linecap="round" stroke-linejoin="round"/>
</svg>

<svg xmlns="http://www.w3.org/2000/svg" fill="none" viewBox="0 0 24 24" stroke-width="1.5" stroke="currentColor" aria-hidden="true" data-slot="icon">
  <path stroke-linecap="round" stroke-linejoin="round" d="M3.75 9.776c.112-.017.227-.026.344-.026h15.812c.117 0 .232.009.344.026m-16.5 0a2.25 2.25 0 0 0-1.883 2.542l.857 6a2.25 2.25 0 0 0 2.227 1.932H19.05a2.25 2.25 0 0 0 2.227-1.932l.857-6a2.25 2.25 0 0 0-1.883-2.542m-16.5 0V6A2.25 2.25 0 0 1 6 3.75h3.879a1.5 1.5 0 0 1 1.06.44l2.122 2.12a1.5 1.5 0 0 0 1.06.44H18A2.25 2.25 0 0 1 20.25 9v.776"/>
</svg>
